icons/folder-ios.svg

<svg xmlns="http://www.w3.org/2000/svg" viewBox="0 0 16 16"><path id="folder" fill="#78909c" d="m6.922 3.768-.644-.536A1 1 0 0 0 5.638 3H2a1 1 0 0 0-1 1v8a1 1 0 0 0 1 1h12a1 1 0 0 0 1-1V5a1 1 0 0 0-1-1H7.562a1 1 0 0 1-.64-.232"/><path id="motive" fill="#cfd8dc" d="M6 9h1v5H6Zm0-2h1v1H6Zm2 .5v6a.5.5 0 0 0 .5.5h3a.5.5 0 0 0 .5-.5v-6a.5.5 0 0 0-.5-.5h-3a.5.5 0 0 0-.5.5m3 5.5H9V8h2zm5-5V7h-2.5a.5.5 0 0 0-.5.5v3a.5.5 0 0 0 .5.5H15v2h-2v1h2.5a.5.5 0 0 0 .5-.5v-3a.5.5 0 0 0-.5-.5H14V8Z"/></svg>

<svg xmlns="http://www.w3.org/2000/svg" viewBox="0 0 16 16">
<path id="folder" fill="#78909c" d="m6.922 3.768-.644-.536A1 1 0 0 0 5.638 3H2a1 1 0 0 0-1 1v8a1 1 0 0 0 1 1h12a1 1 0 0 0 1-1V5a1 1 0 0 0-1-1H7.562a1 1 0 0 1-.64-.232" />
<path id="motive" fill="#cfd8dc" d="m 6,9 h 1 v 5 H 6 Z M 6,7 H 7 V 8 H 6 Z m 2,0.5 v 6 A 0.5,0.5 0 0 0 8.5,14 h 3 A 0.5,0.5 0 0 0 12,13.5 v -6 A 0.5,0.5 0 0 0 11.5,7 h -3 A 0.5,0.5 0 0 0 8,7.5 M 11,13 H 9 V 8 h 2 z M 16,8 V 7 H 13.5 A 0.5,0.5 0 0 0 13,7.5 v 3 A 0.5,0.5 0 0 0 13.5,11 H 15 v 2 h -2 v 1 h 2.5 A 0.5,0.5 0 0 0 16,13.5 v -3 A 0.5,0.5 0 0 0 15.5,10 H 14 V 8 Z" />
</svg>
